img/header/banner__svg-bottom-2.svg

<svg preserveAspectRatio="xMinYMin meet" width="278" height="278" viewBox="0 0 278 278" fill="none"
     xmlns="http://www.w3.org/2000/svg">
  <path
    d="M118 228.5H160C161.933 228.5 163.5 230.067 163.5 232V274C163.5 275.933 161.933 277.5 160 277.5H118C116.067 277.5 114.5 275.933 114.5 274V232C114.5 230.067 116.067 228.5 118 228.5Z"
    stroke="url(#paint0_linear-bottom-2_1-banner-header)" />
  <path
    d="M175 228.5H217C218.933 228.5 220.5 230.067 220.5 232V274C220.5 275.933 218.933 277.5 217 277.5H175C173.067 277.5 171.5 275.933 171.5 274V232C171.5 230.067 173.067 228.5 175 228.5Z"
    stroke="url(#paint1_linear-bottom-2_1-banner-header)" />
  <path
    d="M232 228.5H274C275.933 228.5 277.5 230.067 277.5 232V274C277.5 275.933 275.933 277.5 274 277.5H232C230.067 277.5 228.5 275.933 228.5 274V232C228.5 230.067 230.067 228.5 232 228.5Z"
    stroke="url(#paint2_linear-bottom-2_1-banner-header)" />
  <path
    d="M61 228.5H103C104.933 228.5 106.5 230.067 106.5 232V274C106.5 275.933 104.933 277.5 103 277.5H61C59.067 277.5 57.5 275.933 57.5 274V232C57.5 230.067 59.067 228.5 61 228.5Z"
    stroke="url(#paint3_linear-bottom-2_1-banner-header)" />
  <path
    d="M4 228.5H46C47.933 228.5 49.5 230.067 49.5 232V274C49.5 275.933 47.933 277.5 46 277.5H4C2.067 277.5 0.5 275.933 0.5 274V232C0.5 230.067 2.067 228.5 4 228.5Z"
    stroke="url(#paint4_linear-bottom-2_1-banner-header)" />
  <path
    d="M232 171.5H274C275.933 171.5 277.5 173.067 277.5 175V217C277.5 218.933 275.933 220.5 274 220.5H232C230.067 220.5 228.5 218.933 228.5 217V175C228.5 173.067 230.067 171.5 232 171.5Z"
    stroke="url(#paint5_linear-bottom-2_1-banner-header)" />
  <path
    d="M175 171.5H217C218.933 171.5 220.5 173.067 220.5 175V217C220.5 218.933 218.933 220.5 217 220.5H175C173.067 220.5 171.5 218.933 171.5 217V175C171.5 173.067 173.067 171.5 175 171.5Z"
    stroke="url(#paint6_linear-bottom-2_1-banner-header)" />
  <path
    d="M118 171.5H160C161.933 171.5 163.5 173.067 163.5 175V217C163.5 218.933 161.933 220.5 160 220.5H118C116.067 220.5 114.5 218.933 114.5 217V175C114.5 173.067 116.067 171.5 118 171.5Z"
    stroke="url(#paint7_linear-bottom-2_1-banner-header)" />
  <path
    d="M61 171.5H103C104.933 171.5 106.5 173.067 106.5 175V217C106.5 218.933 104.933 220.5 103 220.5H61C59.067 220.5 57.5 218.933 57.5 217V175C57.5 173.067 59.067 171.5 61 171.5Z"
    stroke="url(#paint8_linear-bottom-2_1-banner-header)" />
  <path
    d="M232 114.5H274C275.933 114.5 277.5 116.067 277.5 118V160C277.5 161.933 275.933 163.5 274 163.5H232C230.067 163.5 228.5 161.933 228.5 160V118C228.5 116.067 230.067 114.5 232 114.5Z"
    stroke="url(#paint9_linear-bottom-2_1-banner-header)" />
  <path
    d="M175 114.5H217C218.933 114.5 220.5 116.067 220.5 118V160C220.5 161.933 218.933 163.5 217 163.5H175C173.067 163.5 171.5 161.933 171.5 160V118C171.5 116.067 173.067 114.5 175 114.5Z"
    stroke="url(#paint10_linear-bottom-2_1-banner-header)" />
  <path
    d="M118 114.5H160C161.933 114.5 163.5 116.067 163.5 118V160C163.5 161.933 161.933 163.5 160 163.5H118C116.067 163.5 114.5 161.933 114.5 160V118C114.5 116.067 116.067 114.5 118 114.5Z"
    stroke="url(#paint11_linear-bottom-2_1-banner-header)" />
  <path
    d="M232 57.5H274C275.933 57.5 277.5 59.067 277.5 61V103C277.5 104.933 275.933 106.5 274 106.5H232C230.067 106.5 228.5 104.933 228.5 103V61C228.5 59.067 230.067 57.5 232 57.5Z"
    stroke="url(#paint12_linear-bottom-2_1-banner-header)" />
  <path
    d="M175 57.5H217C218.933 57.5 220.5 59.067 220.5 61V103C220.5 104.933 218.933 106.5 217 106.5H175C173.067 106.5 171.5 104.933 171.5 103V61C171.5 59.067 173.067 57.5 175 57.5Z"
    stroke="url(#paint13_linear-bottom-2_1-banner-header)" />
  <path
    d="M232 0.5H274C275.933 0.5 277.5 2.067 277.5 4V46C277.5 47.933 275.933 49.5 274 49.5H232C230.067 49.5 228.5 47.933 228.5 46V4C228.5 2.067 230.067 0.5 232 0.5Z"
    stroke="url(#paint14_linear-bottom-2_1-banner-header)" />
  <defs>
    <linearGradient id="paint0_linear-bottom-2_1-banner-header" x1="-77.0915" y1="-497.5" x2="305.908" y2="317"
                    gradientUnits="userSpaceOnUse">
      <stop stop-color="#F7DE52" />
      <stop offset="0.213592" stop-color="#FCB5EF" stop-opacity="0.38" />
      <stop offset="0.389458" stop-color="#FCB5EF" stop-opacity="0" />
      <stop offset="0.637411" stop-color="#FCB5EF" stop-opacity="0" />
      <stop offset="0.79923" stop-color="#FCB5EF" stop-opacity="0.38" />
      <stop offset="1" stop-color="#F7DE52" />
    </linearGradient>
    <linearGradient id="paint1_linear-bottom-2_1-banner-header" x1="-77.0916" y1="-497.5" x2="305.908" y2="317"
                    gradientUnits="userSpaceOnUse">
      <stop stop-color="#F7DE52" />
      <stop offset="0.213592" stop-color="#FCB5EF" stop-opacity="0.38" />
      <stop offset="0.389458" stop-color="#FCB5EF" stop-opacity="0" />
      <stop offset="0.637411" stop-color="#FCB5EF" stop-opacity="0" />
      <stop offset="0.79923" stop-color="#FCB5EF" stop-opacity="0.38" />
      <stop offset="1" stop-color="#F7DE52" />
    </linearGradient>
    <linearGradient id="paint2_linear-bottom-2_1-banner-header" x1="-77.0915" y1="-497.5" x2="305.908" y2="317"
                    gradientUnits="userSpaceOnUse">
      <stop stop-color="#F7DE52" />
      <stop offset="0.213592" stop-color="#FCB5EF" stop-opacity="0.38" />
      <stop offset="0.389458" stop-color="#FCB5EF" stop-opacity="0" />
      <stop offset="0.637411" stop-color="#FCB5EF" stop-opacity="0" />
      <stop offset="0.79923" stop-color="#FCB5EF" stop-opacity="0.38" />
      <stop offset="1" stop-color="#F7DE52" />
    </linearGradient>
    <linearGradient id="paint3_linear-bottom-2_1-banner-header" x1="-77.0915" y1="-497.5" x2="305.908" y2="317"
                    gradientUnits="userSpaceOnUse">
      <stop stop-color="#F7DE52" />
      <stop offset="0.213592" stop-color="#FCB5EF" stop-opacity="0.38" />
      <stop offset="0.389458" stop-color="#FCB5EF" stop-opacity="0" />
      <stop offset="0.637411" stop-color="#FCB5EF" stop-opacity="0" />
      <stop offset="0.79923" stop-color="#FCB5EF" stop-opacity="0.38" />
      <stop offset="1" stop-color="#F7DE52" />
    </linearGradient>
    <linearGradient id="paint4_linear-bottom-2_1-banner-header" x1="-77.0915" y1="-497.5" x2="305.908" y2="317"
                    gradientUnits="userSpaceOnUse">
      <stop stop-color="#F7DE52" />
      <stop offset="0.213592" stop-color="#FCB5EF" stop-opacity="0.38" />
      <stop offset="0.389458" stop-color="#FCB5EF" stop-opacity="0" />
      <stop offset="0.637411" stop-color="#FCB5EF" stop-opacity="0" />
      <stop offset="0.79923" stop-color="#FCB5EF" stop-opacity="0.38" />
      <stop offset="1" stop-color="#F7DE52" />
    </linearGradient>
    <linearGradient id="paint5_linear-bottom-2_1-banner-header" x1="-77.0915" y1="-497.5" x2="305.908" y2="317"
                    gradientUnits="userSpaceOnUse">
      <stop stop-color="#F7DE52" />
      <stop offset="0.213592" stop-color="#FCB5EF" stop-opacity="0.38" />
      <stop offset="0.389458" stop-color="#FCB5EF" stop-opacity="0" />
      <stop offset="0.637411" stop-color="#FCB5EF" stop-opacity="0" />
      <stop offset="0.79923" stop-color="#FCB5EF" stop-opacity="0.38" />
      <stop offset="1" stop-color="#F7DE52" />
    </linearGradient>
    <linearGradient id="paint6_linear-bottom-2_1-banner-header" x1="-77.0915" y1="-497.5" x2="305.908" y2="317"
                    gradientUnits="userSpaceOnUse">
      <stop stop-color="#F7DE52" />
      <stop offset="0.213592" stop-color="#FCB5EF" stop-opacity="0.38" />
      <stop offset="0.389458" stop-color="#FCB5EF" stop-opacity="0" />
      <stop offset="0.637411" stop-color="#FCB5EF" stop-opacity="0" />
      <stop offset="0.79923" stop-color="#FCB5EF" stop-opacity="0.38" />
      <stop offset="1" stop-color="#F7DE52" />
    </linearGradient>
    <linearGradient id="paint7_linear-bottom-2_1-banner-header" x1="-77.0915" y1="-497.5" x2="305.908" y2="317"
                    gradientUnits="userSpaceOnUse">
      <stop stop-color="#F7DE52" />
      <stop offset="0.213592" stop-color="#FCB5EF" stop-opacity="0.38" />
      <stop offset="0.389458" stop-color="#FCB5EF" stop-opacity="0" />
      <stop offset="0.637411" stop-color="#FCB5EF" stop-opacity="0" />
      <stop offset="0.79923" stop-color="#FCB5EF" stop-opacity="0.38" />
      <stop offset="1" stop-color="#F7DE52" />
    </linearGradient>
    <linearGradient id="paint8_linear-bottom-2_1-banner-header" x1="-77.0915" y1="-497.5" x2="305.908" y2="317"
                    gradientUnits="userSpaceOnUse">
      <stop stop-color="#F7DE52" />
      <stop offset="0.213592" stop-color="#FCB5EF" stop-opacity="0.38" />
      <stop offset="0.389458" stop-color="#FCB5EF" stop-opacity="0" />
      <stop offset="0.637411" stop-color="#FCB5EF" stop-opacity="0" />
      <stop offset="0.79923" stop-color="#FCB5EF" stop-opacity="0.38" />
      <stop offset="1" stop-color="#F7DE52" />
    </linearGradient>
    <linearGradient id="paint9_linear-bottom-2_1-banner-header" x1="-77.0915" y1="-497.5" x2="305.908" y2="317"
                    gradientUnits="userSpaceOnUse">
      <stop stop-color="#F7DE52" />
      <stop offset="0.213592" stop-color="#FCB5EF" stop-opacity="0.38" />
      <stop offset="0.389458" stop-color="#FCB5EF" stop-opacity="0" />
      <stop offset="0.637411" stop-color="#FCB5EF" stop-opacity="0" />
      <stop offset="0.79923" stop-color="#FCB5EF" stop-opacity="0.38" />
      <stop offset="1" stop-color="#F7DE52" />
    </linearGradient>
    <linearGradient id="paint10_linear-bottom-2_1-banner-header" x1="-77.0915" y1="-497.5" x2="305.908" y2="317"
                    gradientUnits="userSpaceOnUse">
      <stop stop-color="#F7DE52" />
      <stop offset="0.213592" stop-color="#FCB5EF" stop-opacity="0.38" />
      <stop offset="0.389458" stop-color="#FCB5EF" stop-opacity="0" />
      <stop offset="0.637411" stop-color="#FCB5EF" stop-opacity="0" />
      <stop offset="0.79923" stop-color="#FCB5EF" stop-opacity="0.38" />
      <stop offset="1" stop-color="#F7DE52" />
    </linearGradient>
    <linearGradient id="paint11_linear-bottom-2_1-banner-header" x1="-77.0915" y1="-497.5" x2="305.908" y2="317"
                    gradientUnits="userSpaceOnUse">
      <stop stop-color="#F7DE52" />
      <stop offset="0.213592" stop-color="#FCB5EF" stop-opacity="0.38" />
      <stop offset="0.389458" stop-color="#FCB5EF" stop-opacity="0" />
      <stop offset="0.637411" stop-color="#FCB5EF" stop-opacity="0" />
      <stop offset="0.79923" stop-color="#FCB5EF" stop-opacity="0.38" />
      <stop offset="1" stop-color="#F7DE52" />
    </linearGradient>
    <linearGradient id="paint12_linear-bottom-2_1-banner-header" x1="-77.0915" y1="-497.5" x2="305.908" y2="317"
                    gradientUnits="userSpaceOnUse">
      <stop stop-color="#F7DE52" />
      <stop offset="0.213592" stop-color="#FCB5EF" stop-opacity="0.38" />
      <stop offset="0.389458" stop-color="#FCB5EF" stop-opacity="0" />
      <stop offset="0.637411" stop-color="#FCB5EF" stop-opacity="0" />
      <stop offset="0.79923" stop-color="#FCB5EF" stop-opacity="0.38" />
      <stop offset="1" stop-color="#F7DE52" />
    </linearGradient>
    <linearGradient id="paint13_linear-bottom-2_1-banner-header" x1="-77.0915" y1="-497.5" x2="305.908" y2="317"
                    gradientUnits="userSpaceOnUse">
      <stop stop-color="#F7DE52" />
      <stop offset="0.213592" stop-color="#FCB5EF" stop-opacity="0.38" />
      <stop offset="0.389458" stop-color="#FCB5EF" stop-opacity="0" />
      <stop offset="0.637411" stop-color="#FCB5EF" stop-opacity="0" />
      <stop offset="0.79923" stop-color="#FCB5EF" stop-opacity="0.38" />
      <stop offset="1" stop-color="#F7DE52" />
    </linearGradient>
    <linearGradient id="paint14_linear-bottom-2_1-banner-header" x1="-77.0915" y1="-497.5" x2="305.908" y2="317"
                    gradientUnits="userSpaceOnUse">
      <stop stop-color="#F7DE52" />
      <stop offset="0.213592" stop-color="#FCB5EF" stop-opacity="0.38" />
      <stop offset="0.389458" stop-color="#FCB5EF" stop-opacity="0" />
      <stop offset="0.637411" stop-color="#FCB5EF" stop-opacity="0" />
      <stop offset="0.79923" stop-color="#FCB5EF" stop-opacity="0.38" />
      <stop offset="1" stop-color="#F7DE52" />
    </linearGradient>
  </defs>
</svg>

<svg preserveAspectRatio="xMinYMin meet" width="278" height="278" fill="none" xmlns="http://www.w3.org/2000/svg"><path d="M118 228.5h42a3.5 3.5 0 013.5 3.5v42a3.5 3.5 0 01-3.5 3.5h-42a3.5 3.5 0 01-3.5-3.5v-42a3.5 3.5 0 013.5-3.5z" stroke="url(#paint0_linear-bottom-2_1-banner-header)"/><path d="M175 228.5h42a3.5 3.5 0 013.5 3.5v42a3.5 3.5 0 01-3.5 3.5h-42a3.5 3.5 0 01-3.5-3.5v-42a3.5 3.5 0 013.5-3.5z" stroke="url(#paint1_linear-bottom-2_1-banner-header)"/><path d="M232 228.5h42a3.5 3.5 0 013.5 3.5v42a3.5 3.5 0 01-3.5 3.5h-42a3.5 3.5 0 01-3.5-3.5v-42a3.5 3.5 0 013.5-3.5z" stroke="url(#paint2_linear-bottom-2_1-banner-header)"/><path d="M61 228.5h42a3.5 3.5 0 013.5 3.5v42a3.5 3.5 0 01-3.5 3.5H61a3.5 3.5 0 01-3.5-3.5v-42a3.5 3.5 0 013.5-3.5z" stroke="url(#paint3_linear-bottom-2_1-banner-header)"/><path d="M4 228.5h42a3.5 3.5 0 013.5 3.5v42a3.5 3.5 0 01-3.5 3.5H4A3.5 3.5 0 01.5 274v-42a3.5 3.5 0 013.5-3.5z" stroke="url(#paint4_linear-bottom-2_1-banner-header)"/><path d="M232 171.5h42a3.5 3.5 0 013.5 3.5v42a3.5 3.5 0 01-3.5 3.5h-42a3.5 3.5 0 01-3.5-3.5v-42a3.5 3.5 0 013.5-3.5z" stroke="url(#paint5_linear-bottom-2_1-banner-header)"/><path d="M175 171.5h42a3.5 3.5 0 013.5 3.5v42a3.5 3.5 0 01-3.5 3.5h-42a3.5 3.5 0 01-3.5-3.5v-42a3.5 3.5 0 013.5-3.5z" stroke="url(#paint6_linear-bottom-2_1-banner-header)"/><path d="M118 171.5h42a3.5 3.5 0 013.5 3.5v42a3.5 3.5 0 01-3.5 3.5h-42a3.5 3.5 0 01-3.5-3.5v-42a3.5 3.5 0 013.5-3.5z" stroke="url(#paint7_linear-bottom-2_1-banner-header)"/><path d="M61 171.5h42a3.5 3.5 0 013.5 3.5v42a3.5 3.5 0 01-3.5 3.5H61a3.5 3.5 0 01-3.5-3.5v-42a3.5 3.5 0 013.5-3.5z" stroke="url(#paint8_linear-bottom-2_1-banner-header)"/><path d="M232 114.5h42a3.5 3.5 0 013.5 3.5v42a3.5 3.5 0 01-3.5 3.5h-42a3.5 3.5 0 01-3.5-3.5v-42a3.5 3.5 0 013.5-3.5z" stroke="url(#paint9_linear-bottom-2_1-banner-header)"/><path d="M175 114.5h42a3.5 3.5 0 013.5 3.5v42a3.5 3.5 0 01-3.5 3.5h-42a3.5 3.5 0 01-3.5-3.5v-42a3.5 3.5 0 013.5-3.5z" stroke="url(#paint10_linear-bottom-2_1-banner-header)"/><path d="M118 114.5h42a3.5 3.5 0 013.5 3.5v42a3.5 3.5 0 01-3.5 3.5h-42a3.5 3.5 0 01-3.5-3.5v-42a3.5 3.5 0 013.5-3.5z" stroke="url(#paint11_linear-bottom-2_1-banner-header)"/><path d="M232 57.5h42a3.5 3.5 0 013.5 3.5v42a3.5 3.5 0 01-3.5 3.5h-42a3.5 3.5 0 01-3.5-3.5V61a3.5 3.5 0 013.5-3.5z" stroke="url(#paint12_linear-bottom-2_1-banner-header)"/><path d="M175 57.5h42a3.5 3.5 0 013.5 3.5v42a3.5 3.5 0 01-3.5 3.5h-42a3.5 3.5 0 01-3.5-3.5V61a3.5 3.5 0 013.5-3.5z" stroke="url(#paint13_linear-bottom-2_1-banner-header)"/><path d="M232 .5h42a3.5 3.5 0 013.5 3.5v42a3.5 3.5 0 01-3.5 3.5h-42a3.5 3.5 0 01-3.5-3.5V4A3.5 3.5 0 01232 .5z" stroke="url(#paint14_linear-bottom-2_1-banner-header)"/><defs><linearGradient id="paint0_linear-bottom-2_1-banner-header" x1="-77.091" y1="-497.5" x2="305.908" y2="317" gradientUnits="userSpaceOnUse"><stop stop-color="#F7DE52"/><stop offset=".214" stop-color="#FCB5EF" stop-opacity=".38"/><stop offset=".389" stop-color="#FCB5EF" stop-opacity="0"/><stop offset=".637" stop-color="#FCB5EF" stop-opacity="0"/><stop offset=".799" stop-color="#FCB5EF" stop-opacity=".38"/><stop offset="1" stop-color="#F7DE52"/></linearGradient><linearGradient id="paint1_linear-bottom-2_1-banner-header" x1="-77.092" y1="-497.5" x2="305.908" y2="317" gradientUnits="userSpaceOnUse"><stop stop-color="#F7DE52"/><stop offset=".214" stop-color="#FCB5EF" stop-opacity=".38"/><stop offset=".389" stop-color="#FCB5EF" stop-opacity="0"/><stop offset=".637" stop-color="#FCB5EF" stop-opacity="0"/><stop offset=".799" stop-color="#FCB5EF" stop-opacity=".38"/><stop offset="1" stop-color="#F7DE52"/></linearGradient><linearGradient id="paint2_linear-bottom-2_1-banner-header" x1="-77.091" y1="-497.5" x2="305.908" y2="317" gradientUnits="userSpaceOnUse"><stop stop-color="#F7DE52"/><stop offset=".214" stop-color="#FCB5EF" stop-opacity=".38"/><stop offset=".389" stop-color="#FCB5EF" stop-opacity="0"/><stop offset=".637" stop-color="#FCB5EF" stop-opacity="0"/><stop offset=".799" stop-color="#FCB5EF" stop-opacity=".38"/><stop offset="1" stop-color="#F7DE52"/></linearGradient><linearGradient id="paint3_linear-bottom-2_1-banner-header" x1="-77.091" y1="-497.5" x2="305.908" y2="317" gradientUnits="userSpaceOnUse"><stop stop-color="#F7DE52"/><stop offset=".214" stop-color="#FCB5EF" stop-opacity=".38"/><stop offset=".389" stop-color="#FCB5EF" stop-opacity="0"/><stop offset=".637" stop-color="#FCB5EF" stop-opacity="0"/><stop offset=".799" stop-color="#FCB5EF" stop-opacity=".38"/><stop offset="1" stop-color="#F7DE52"/></linearGradient><linearGradient id="paint4_linear-bottom-2_1-banner-header" x1="-77.091" y1="-497.5" x2="305.908" y2="317" gradientUnits="userSpaceOnUse"><stop stop-color="#F7DE52"/><stop offset=".214" stop-color="#FCB5EF" stop-opacity=".38"/><stop offset=".389" stop-color="#FCB5EF" stop-opacity="0"/><stop offset=".637" stop-color="#FCB5EF" stop-opacity="0"/><stop offset=".799" stop-color="#FCB5EF" stop-opacity=".38"/><stop offset="1" stop-color="#F7DE52"/></linearGradient><linearGradient id="paint5_linear-bottom-2_1-banner-header" x1="-77.091" y1="-497.5" x2="305.908" y2="317" gradientUnits="userSpaceOnUse"><stop stop-color="#F7DE52"/><stop offset=".214" stop-color="#FCB5EF" stop-opacity=".38"/><stop offset=".389" stop-color="#FCB5EF" stop-opacity="0"/><stop offset=".637" stop-color="#FCB5EF" stop-opacity="0"/><stop offset=".799" stop-color="#FCB5EF" stop-opacity=".38"/><stop offset="1" stop-color="#F7DE52"/></linearGradient><linearGradient id="paint6_linear-bottom-2_1-banner-header" x1="-77.091" y1="-497.5" x2="305.908" y2="317" gradientUnits="userSpaceOnUse"><stop stop-color="#F7DE52"/><stop offset=".214" stop-color="#FCB5EF" stop-opacity=".38"/><stop offset=".389" stop-color="#FCB5EF" stop-opacity="0"/><stop offset=".637" stop-color="#FCB5EF" stop-opacity="0"/><stop offset=".799" stop-color="#FCB5EF" stop-opacity=".38"/><stop offset="1" stop-color="#F7DE52"/></linearGradient><linearGradient id="paint7_linear-bottom-2_1-banner-header" x1="-77.091" y1="-497.5" x2="305.908" y2="317" gradientUnits="userSpaceOnUse"><stop stop-color="#F7DE52"/><stop offset=".214" stop-color="#FCB5EF" stop-opacity=".38"/><stop offset=".389" stop-color="#FCB5EF" stop-opacity="0"/><stop offset=".637" stop-color="#FCB5EF" stop-opacity="0"/><stop offset=".799" stop-color="#FCB5EF" stop-opacity=".38"/><stop offset="1" stop-color="#F7DE52"/></linearGradient><linearGradient id="paint8_linear-bottom-2_1-banner-header" x1="-77.091" y1="-497.5" x2="305.908" y2="317" gradientUnits="userSpaceOnUse"><stop stop-color="#F7DE52"/><stop offset=".214" stop-color="#FCB5EF" stop-opacity=".38"/><stop offset=".389" stop-color="#FCB5EF" stop-opacity="0"/><stop offset=".637" stop-color="#FCB5EF" stop-opacity="0"/><stop offset=".799" stop-color="#FCB5EF" stop-opacity=".38"/><stop offset="1" stop-color="#F7DE52"/></linearGradient><linearGradient id="paint9_linear-bottom-2_1-banner-header" x1="-77.091" y1="-497.5" x2="305.908" y2="317" gradientUnits="userSpaceOnUse"><stop stop-color="#F7DE52"/><stop offset=".214" stop-color="#FCB5EF" stop-opacity=".38"/><stop offset=".389" stop-color="#FCB5EF" stop-opacity="0"/><stop offset=".637" stop-color="#FCB5EF" stop-opacity="0"/><stop offset=".799" stop-color="#FCB5EF" stop-opacity=".38"/><stop offset="1" stop-color="#F7DE52"/></linearGradient><linearGradient id="paint10_linear-bottom-2_1-banner-header" x1="-77.091" y1="-497.5" x2="305.908" y2="317" gradientUnits="userSpaceOnUse"><stop stop-color="#F7DE52"/><stop offset=".214" stop-color="#FCB5EF" stop-opacity=".38"/><stop offset=".389" stop-color="#FCB5EF" stop-opacity="0"/><stop offset=".637" stop-color="#FCB5EF" stop-opacity="0"/><stop offset=".799" stop-color="#FCB5EF" stop-opacity=".38"/><stop offset="1" stop-color="#F7DE52"/></linearGradient><linearGradient id="paint11_linear-bottom-2_1-banner-header" x1="-77.091" y1="-497.5" x2="305.908" y2="317" gradientUnits="userSpaceOnUse"><stop stop-color="#F7DE52"/><stop offset=".214" stop-color="#FCB5EF" stop-opacity=".38"/><stop offset=".389" stop-color="#FCB5EF" stop-opacity="0"/><stop offset=".637" stop-color="#FCB5EF" stop-opacity="0"/><stop offset=".799" stop-color="#FCB5EF" stop-opacity=".38"/><stop offset="1" stop-color="#F7DE52"/></linearGradient><linearGradient id="paint12_linear-bottom-2_1-banner-header" x1="-77.091" y1="-497.5" x2="305.908" y2="317" gradientUnits="userSpaceOnUse"><stop stop-color="#F7DE52"/><stop offset=".214" stop-color="#FCB5EF" stop-opacity=".38"/><stop offset=".389" stop-color="#FCB5EF" stop-opacity="0"/><stop offset=".637" stop-color="#FCB5EF" stop-opacity="0"/><stop offset=".799" stop-color="#FCB5EF" stop-opacity=".38"/><stop offset="1" stop-color="#F7DE52"/></linearGradient><linearGradient id="paint13_linear-bottom-2_1-banner-header" x1="-77.091" y1="-497.5" x2="305.908" y2="317" gradientUnits="userSpaceOnUse"><stop stop-color="#F7DE52"/><stop offset=".214" stop-color="#FCB5EF" stop-opacity=".38"/><stop offset=".389" stop-color="#FCB5EF" stop-opacity="0"/><stop offset=".637" stop-color="#FCB5EF" stop-opacity="0"/><stop offset=".799" stop-color="#FCB5EF" stop-opacity=".38"/><stop offset="1" stop-color="#F7DE52"/></linearGradient><linearGradient id="paint14_linear-bottom-2_1-banner-header" x1="-77.091" y1="-497.5" x2="305.908" y2="317" gradientUnits="userSpaceOnUse"><stop stop-color="#F7DE52"/><stop offset=".214" stop-color="#FCB5EF" stop-opacity=".38"/><stop offset=".389" stop-color="#FCB5EF" stop-opacity="0"/><stop offset=".637" stop-color="#FCB5EF" stop-opacity="0"/><stop offset=".799" stop-color="#FCB5EF" stop-opacity=".38"/><stop offset="1" stop-color="#F7DE52"/></linearGradient></defs></svg>
